src/images/ico/fb.svg

<!-- Generated by IcoMoon.io -->
<svg version="1.1" xmlns="http://www.w3.org/2000/svg" width="384" height="448" viewBox="0 0 384 448">
<title></title>
<g id="icomoon-ignore">
</g>
<path d="M362.75 32c11.75 0 21.25 9.5 21.25 21.25v341.5c0 11.75-9.5 21.25-21.25 21.25h-97.75v-148.75h49.75l7.5-58h-57.25v-37c0-16.75 4.5-28 28.75-28l30.5-0.25v-51.75c-5.25-0.75-23.5-2.25-44.5-2.25-44.25 0-74.75 27-74.75 76.5v42.75h-50v58h50v148.75h-183.75c-11.75 0-21.25-9.5-21.25-21.25v-341.5c0-11.75 9.5-21.25 21.25-21.25h341.5z"></path>
</svg>

<svg xmlns="http://www.w3.org/2000/svg" width="384" height="448" viewBox="0 0 384 448"><path d="M362.75 32C374.5 32 384 41.5 384 53.25v341.5c0 11.75-9.5 21.25-21.25 21.25H265V267.25h49.75l7.5-58H265v-37c0-16.75 4.5-28 28.75-28l30.5-.25V92.25C319 91.5 300.75 90 279.75 90 235.5 90 205 117 205 166.5v42.75h-50v58h50V416H21.25C9.5 416 0 406.5 0 394.75V53.25C0 41.5 9.5 32 21.25 32h341.5z"/></svg>
